**kern	**silbe	**harmony	**phrase	**leadinstrument	**rhyme	**timestamp	**harte
*ICvox	*	*M12/8	*	*	*	*	*M12/8
*VRlead	*	*	*	*	*	*	*
*Hstimme	*	*	*	*	*	*	*
*G:	*	*G:	*	*	*	*	*G:
*M12/8	*	*	*	*	*	*	*
*clefG2	*	*	*	*	*	*	*
r;	.	1r;	.	r	.	0	N.C.
=1	=1	=1	=1	=1	=1	=1	=1
*>Letter>A4	*>Letter>A4	*>Letter>A4	*>Letter>A4	*>Letter>A4	*>Letter>A4	*>Letter>A4	*>Letter>A4
*>Label>Verse	*>Label>Verse	*>Label>Verse	*>Label>Verse	*>Label>Verse	*>Label>Verse	*>Label>Verse	*>Label>Verse
4.r	.	1.GM	newline	voice	.	3.321	G:maj
4G	Just	.	.	.	.	.	.
8A	a	.	.	.	.	.	.
4c	dream	.	.	.	A	.	.
[8B	_	.	.	.	.	.	.
8B]	_	.	.	.	.	.	.
8A	just	.	.	.	.	.	.
8G	a	.	.	.	.	.	.
=2	=2	=2	=2	=2	=2	=2	=2
4d	dream	1.GMm	.	voice	A	6.2	G:7
[8B	_	.	.	.	.	.	.
4.B]	_	.	.	.	.	.	.
2.r	.	.	.	.	.	.	.
=3	=3	=3	=3	=3	=3	=3	=3
4.r	.	1.DMm	.	voice	.	9.079	D:7
8r	.	.	.	.	.	.	.
8D	All	.	.	.	.	.	.
8G	our	.	.	.	.	.	.
4B	plans	.	.	.	.	.	.
[8B	and	.	.	.	.	.	.
8B]	_	.	.	.	.	.	.
8c	all	.	.	.	.	.	.
[8d	our	.	.	.	.	.	.
=4	=4	=4	=4	=4	=4	=4	=4
4.d]	_	1.DMm	.	voice	.	11.959	D:7
4d	sche-	.	.	.	(A	.	.
[8A	-mes	.	.	.	a)	.	.
4.A]	_	.	.	.	.	.	.
4.r	.	.	.	.	.	.	.
=5	=5	=5	=5	=5	=5	=5	=5
4r	.	1.DMm	newline	voice	.	14.838	D:7
[8D	How	.	.	.	.	.	.
8D]	_	.	.	.	.	.	.
8F#	could	.	.	.	.	.	.
8A	I	.	.	.	.	.	.
4c	think	.	.	.	.	.	.
8r	.	.	.	.	.	.	.
4r	.	.	.	.	.	.	.
8B	you'd	.	.	.	.	.	.
=6	=6	=6	=6	=6	=6	=6	=6
4A	be	1.DMm	.	voice	.	17.725	D:7
8c	mine	.	.	.	B	.	.
4.A	_	.	.	.	.	.	.
2.r	.	.	.	.	.	.	.
=7	=7	=7	=7	=7	=7	=7	=7
4r	.	2.GM	.	voice	.	20.613	G:maj
8D	The	.	.	.	.	.	.
4F#	lies	.	.	.	.	.	.
8A	I'd	.	.	.	.	.	.
4c	tell	2.CM	.	voice	.	22.056	C:maj
8d	my-	.	.	.	.	.	.
4e	-self	.	.	.	.	.	.
8B	each	.	.	.	.	.	.
=8	=8	=8	=8	=8	=8	=8	=8
4e	time	1.GM	.	voice	B	23.5	G:maj
[8d	_	.	.	.	.	.	.
4.d]	_	.	.	.	.	.	.
2.r	.	.	.	.	.	.	.
=9	=9	=9	=9	=9	=9	=9	=9
4r	.	1.GM	newline	voice	.	26.387	G:maj
8D	I	.	.	.	.	.	.
4G	know	.	.	.	.	.	.
8A	that	.	.	.	.	.	.
4c	we	.	.	.	.	.	.
[8B	could	.	.	.	.	.	.
8B]	_	.	.	.	.	.	.
8A	ne-	.	.	.	.	.	.
8G	-ver	.	.	.	.	.	.
=10	=10	=10	=10	=10	=10	=10	=10
4d	last	1.GMm	.	voice	C	29.325	G:7
[8B	_	.	.	.	.	.	.
4.B]	_	.	.	.	.	.	.
2.r	.	.	.	.	.	.	.
=11	=11	=11	=11	=11	=11	=11	=11
4r	.	1.DMm	.	voice	.	32.263	D:7
8D	We	.	.	.	.	.	.
4G	just	.	.	.	.	.	.
8A	can't	.	.	.	.	.	.
4B	seem	.	.	.	.	.	.
8B	to,	.	.	.	.	.	.
4r	.	.	.	.	.	.	.
8c	in	.	.	.	.	.	.
=12	=12	=12	=12	=12	=12	=12	=12
4d	the	1.DMm	.	voice	.	35.201	D:7
[8d	past	.	.	.	C	.	.
4d]	_	.	.	.	.	.	.
[8A	_	.	.	.	.	.	.
4.A]	_	.	.	.	.	.	.
4.r	.	.	.	.	.	.	.
=13	=13	=13	=13	=13	=13	=13	=13
4.r	.	1.DMm	newline	voice	.	38.138	D:7
4A	Just	.	.	.	.	.	.
8B	a	.	.	.	.	.	.
4c	dream	.	.	.	.	.	.
[8d	I	.	.	.	.	.	.
4d]	_	.	.	.	.	.	.
8c	dream	.	.	.	.	.	.
=14	=14	=14	=14	=14	=14	=14	=14
4B	in	1.DMm	.	voice	.	41.024	D:7
8c	vain	.	.	.	D	.	.
4.A	_	.	.	.	.	.	.
2.r	.	.	.	.	.	.	.
=15	=15	=15	=15	=15	=15	=15	=15
4r	.	2.GM	.	voice	.	43.91	G:maj
8D	With	.	.	.	.	.	.
4F#	you	.	.	.	.	.	.
8A	I'd	.	.	.	.	.	.
4c	on-	2.CM	.	voice	.	45.353	C:maj
8d	-ly	.	.	.	.	.	.
4e	live	.	.	.	.	.	.
8B	in	.	.	.	.	.	.
=16	=16	=16	=16	=16	=16	=16	=16
4e	pain	4.GM	.	voice	D	46.796	G:maj
[8d	_	.	.	.	.	.	.
4.d_	_	4.GMm	.	voice	.	47.517	G:7
4.d]	_	4.GM	.	voice	.	48.239	G:maj6
4.r	.	4.GM	.	voice	.	48.96	G:maj
=17	=17	=17	=17	=17	=17	=17	=17
*>Letter>B	*>Letter>B	*>Letter>B	*>Letter>B	*>Letter>B	*>Letter>B	*>Letter>B	*>Letter>B
*>Label>Chorus	*>Label>Chorus	*>Label>Chorus	*>Label>Chorus	*>Label>Chorus	*>Label>Chorus	*>Label>Chorus	*>Label>Chorus
2.r	.	1.CM	newline	voice	.	49.682	C:maj
4.r	.	.	.	.	.	.	.
4e	Your	.	.	.	.	.	.
8d	_	.	.	.	.	.	.
=18	=18	=18	=18	=18	=18	=18	=18
4e	pic-	1.Cm	.	voice	.	52.526	C:min
[8c	-ture	.	.	.	.	.	.
4.c]	_	.	.	.	.	.	.
4r	.	.	.	.	.	.	.
[8e	is	.	.	.	.	.	.
8.e]	_	.	.	.	.	.	.
8.c	al-	.	.	.	.	.	.
=19	=19	=19	=19	=19	=19	=19	=19
8.d	-ways	1.GM	.	voice	.	55.37	G:maj
8.e-	with	.	.	.	.	.	.
4.c	me	.	.	.	.	.	.
4.r	.	.	.	.	.	.	.
8r	.	.	.	.	.	.	.
8e	I	.	.	.	.	.	.
8e	can	.	.	.	.	.	.
=20	=20	=20	=20	=20	=20	=20	=20
4e	still	1.GMm	.	voice	.	58.214	G:7
8d	_	.	.	.	.	.	.
8r	.	.	.	.	.	.	.
8e	hear	.	.	.	.	.	.
8e	that	.	.	.	.	.	.
[4.e	same	.	.	.	.	.	.
4e]	_	.	.	.	.	.	.
8d	mourn-	.	.	.	.	.	.
=21	=21	=21	=21	=21	=21	=21	=21
4c	-ful	1.CM	newline	voice	.	61.058	C:maj
[8B	song	.	.	.	E	.	.
4.B]	_	.	.	.	.	.	.
4.r	.	.	.	.	.	.	.
4.e	And	.	.	.	.	.	.
=22	=22	=22	=22	=22	=22	=22	=22
8e	now	1.Cm	.	voice	.	63.911	C:min
8d	_	.	.	.	.	.	.
[8c	_	.	.	.	.	.	.
4.c]	_	.	.	.	.	.	.
4r	.	.	.	.	.	.	.
[8e	I	.	.	.	.	.	.
4e]	_	.	.	.	.	.	.
8c	sit	.	.	.	.	.	.
=23	=23	=23	=23	=23	=23	=23	=23
4.d	here	1.AMm	.	voice	.	66.765	A:7
8e-	cry-	.	.	.	.	.	.
8d	_	.	.	.	.	.	.
[8c	_	.	.	.	.	.	.
4.c]	_	.	.	.	.	.	.
4.r	.	.	.	.	.	.	.
=24	=24	=24	=24	=24	=24	=24	=24
4.r	.	1.DMm	.	voice	.	69.618	D:7
4.e	Please	.	.	.	.	.	.
4e	leave	.	.	.	.	.	.
8f#	me	.	.	.	.	.	.
4r	.	.	.	.	.	.	.
8e	a	.	.	.	.	.	.
=25	=25	=25	=25	=25	=25	=25	=25
8f#	lone	1.DMm	.	voice	E	72.471	D:7
8e	_	.	.	.	.	.	.
[8d	_	.	.	.	.	.	.
4.d_	_	.	.	.	.	.	.
2.d]	_	.	.	.	.	.	.
=26	=26	=26	=26	=26	=26	=26	=26
*>Letter>A	*>Letter>A	*>Letter>A	*>Letter>A	*>Letter>A	*>Letter>A	*>Letter>A	*>Letter>A
*>Label>Verse	*>Label>Verse	*>Label>Verse	*>Label>Verse	*>Label>Verse	*>Label>Verse	*>Label>Verse	*>Label>Verse
4.r	.	1.GM	newline	voice	.	75.324	G:maj
4G	why	.	.	.	.	.	.
8A	_	.	.	.	.	.	.
4c	why	.	.	.	.	.	.
[8B	_	.	.	.	.	.	.
8B]	_	.	.	.	.	.	.
8A	do	.	.	.	.	.	.
8G	I	.	.	.	.	.	.
=27	=27	=27	=27	=27	=27	=27	=27
4d	love	1.GMm	.	voice	.	78.243	G:7
[8B	you	.	.	.	.	.	.
4.B]	_	.	.	.	.	.	.
2.r	.	.	.	.	.	.	.
=28	=28	=28	=28	=28	=28	=28	=28
4r	.	1.DMm	.	voice	.	81.162	D:7
[8D	How	.	.	.	.	.	.
8D]	_	.	.	.	.	.	.
8G	can	.	.	.	.	.	.
8A	I	.	.	.	.	.	.
4B	live	.	.	.	.	.	.
8B	in	.	.	.	.	.	.
4r	.	.	.	.	.	.	.
8c	mi-	.	.	.	.	.	.
=29	=29	=29	=29	=29	=29	=29	=29
4d	-ser-	1.DMm	.	voice	.	84.081	D:7
[8d	-ry	.	.	.	A	.	.
4d]	_	.	.	.	.	.	.
[8A	_	.	.	.	.	.	.
4.A]	_	.	.	.	.	.	.
4.r	.	.	.	.	.	.	.
=30	=30	=30	=30	=30	=30	=30	=30
4r	.	1.DMm	newline	voice	.	86.999	D:7
8A	I	.	.	.	.	.	.
4A	know	.	.	.	.	.	.
8B	that	.	.	.	.	.	.
4c	I	.	.	.	.	.	.
[8d	_	.	.	.	.	.	.
4d]	_	.	.	.	.	.	.
8c	won't	.	.	.	.	.	.
=31	=31	=31	=31	=31	=31	=31	=31
4B	for-	1.DMm	.	voice	.	89.893	D:7
8c	-get	.	.	.	.	.	.
4.A	you	.	.	.	.	.	.
2.r	.	.	.	.	.	.	.
=32	=32	=32	=32	=32	=32	=32	=32
4r	.	2.GM	.	voice	.	92.786	G:maj
8D	But	.	.	.	.	.	.
4F#	now	.	.	.	.	.	.
8A	I	.	.	.	.	.	.
4c	know	2.CM	.	voice	.	94.233	C:maj
[8d	it's	.	.	.	.	.	.
4d]	_	.	.	.	.	.	.
8B	too	.	.	.	.	.	.
=33	=33	=33	=33	=33	=33	=33	=33
4A	late	4.GM	.	voice	.	95.68	G:maj
[8B	for	.	.	.	.	.	.
4B]	_	4.GMm	.	voice	.	96.403	G:7
[8G	me	.	.	.	A	.	.
4.G]	_	4.GM	.	voice	.	97.127	G:maj6
4.r	.	4.GM	.	voice	.	97.85	G:maj
=34	=34	=34	=34	=34	=34	=34	=34
*>Letter>B	*>Letter>B	*>Letter>B	*>Letter>B	*>Letter>B	*>Letter>B	*>Letter>B	*>Letter>B
*>Label>Chorus	*>Label>Chorus	*>Label>Chorus	*>Label>Chorus	*>Label>Chorus	*>Label>Chorus	*>Label>Chorus	*>Label>Chorus
2.r	.	1.CM	newline	voice	.	98.573	C:maj
4.r	.	.	.	.	.	.	.
4e	Your	.	.	.	.	.	.
8d	_	.	.	.	.	.	.
=35	=35	=35	=35	=35	=35	=35	=35
4e	pic-	1.Cm	.	voice	.	101.409	C:min
[8c	-ture	.	.	.	.	.	.
4.c]	_	.	.	.	.	.	.
4r	.	.	.	.	.	.	.
[8e	is	.	.	.	.	.	.
4e]	_	.	.	.	.	.	.
8c	al-	.	.	.	.	.	.
=36	=36	=36	=36	=36	=36	=36	=36
4d	-ways	1.GM	.	voice	.	104.244	G:maj
8e-	with	.	.	.	.	.	.
8e-	me	.	.	.	.	.	.
4c	_	.	.	.	.	.	.
4.r	.	.	.	.	.	.	.
8r	.	.	.	.	.	.	.
8e	I	.	.	.	.	.	.
8e	can	.	.	.	.	.	.
=37	=37	=37	=37	=37	=37	=37	=37
4e	still	1.GMm	.	voice	.	107.079	G:7
8d	_	.	.	.	.	.	.
8r	.	.	.	.	.	.	.
8e	hear	.	.	.	.	.	.
8e	that	.	.	.	.	.	.
[4.e	same	.	.	.	.	.	.
4e]	_	.	.	.	.	.	.
8d	mourn-	.	.	.	.	.	.
=38	=38	=38	=38	=38	=38	=38	=38
4c	-ful	1.CM	newline	voice	.	109.914	C:maj
[8B	song	.	.	.	E	.	.
4.B]	_	.	.	.	.	.	.
4.r	.	.	.	.	.	.	.
4.e	And	.	.	.	.	.	.
=39	=39	=39	=39	=39	=39	=39	=39
8e	now	1.Cm	.	voice	.	112.715	C:min
8d	_	.	.	.	.	.	.
[8c	_	.	.	.	.	.	.
4.c]	_	.	.	.	.	.	.
4r	.	.	.	.	.	.	.
[8e	I	.	.	.	.	.	.
4e]	_	.	.	.	.	.	.
8c	sit	.	.	.	.	.	.
=40	=40	=40	=40	=40	=40	=40	=40
4.d	here	1.AMm	.	voice	.	115.516	A:7
4e-	cry-	.	.	.	.	.	.
[8c	_	.	.	.	.	.	.
4.c]	_	.	.	.	.	.	.
4.r	.	.	.	.	.	.	.
=41	=41	=41	=41	=41	=41	=41	=41
4.r	.	1.DMm	.	voice	.	118.317	D:7
4.e	Please	.	.	.	.	.	.
4e	leave	.	.	.	.	.	.
8f#	me	.	.	.	.	.	.
4r	.	.	.	.	.	.	.
8e	a	.	.	.	.	.	.
=42	=42	=42	=42	=42	=42	=42	=42
8f#	lone	1.DMm	.	voice	E	121.118	D:7
8e	_	.	.	.	.	.	.
[8d	_	.	.	.	.	.	.
4.d_	_	.	.	.	.	.	.
2.d]	_	.	.	.	.	.	.
=43	=43	=43	=43	=43	=43	=43	=43
*>Letter>A2	*>Letter>A2	*>Letter>A2	*>Letter>A2	*>Letter>A2	*>Letter>A2	*>Letter>A2	*>Letter>A2
*>Label>Verse	*>Label>Verse	*>Label>Verse	*>Label>Verse	*>Label>Verse	*>Label>Verse	*>Label>Verse	*>Label>Verse
4.r	.	1.GM	newline	voice	.	123.919	G:maj
4G	why	.	.	.	.	.	.
8A	_	.	.	.	.	.	.
4c	why	.	.	.	.	.	.
[8B	_	.	.	.	.	.	.
8B]	_	.	.	.	.	.	.
8A	do	.	.	.	.	.	.
8G	I	.	.	.	.	.	.
=44	=44	=44	=44	=44	=44	=44	=44
4d	love	1.GMm	.	voice	.	126.837	G:7
[8B	you	.	.	.	.	.	.
4.B]	_	.	.	.	.	.	.
2.r	.	.	.	.	.	.	.
=45	=45	=45	=45	=45	=45	=45	=45
4r	.	1.DMm	.	voice	.	129.754	D:7
[8D	How	.	.	.	.	.	.
8D]	_	.	.	.	.	.	.
8G	can	.	.	.	.	.	.
8A	I	.	.	.	.	.	.
4B	live	.	.	.	.	.	.
8B	in	.	.	.	.	.	.
4r	.	.	.	.	.	.	.
8c	mi-	.	.	.	.	.	.
=46	=46	=46	=46	=46	=46	=46	=46
4d	-ser-	1.DMm	.	voice	.	132.672	D:7
[8d	-ry	.	.	.	A	.	.
4d]	_	.	.	.	.	.	.
[8A	_	.	.	.	.	.	.
4.A]	_	.	.	.	.	.	.
4.r	.	.	.	.	.	.	.
=47	=47	=47	=47	=47	=47	=47	=47
4r	.	1.DMm	newline	voice	.	135.59	D:7
8A	I	.	.	.	.	.	.
4A	know	.	.	.	.	.	.
8B	that	.	.	.	.	.	.
4c	I	.	.	.	.	.	.
[8d	_	.	.	.	.	.	.
4d]	_	.	.	.	.	.	.
8c	won't	.	.	.	.	.	.
=48	=48	=48	=48	=48	=48	=48	=48
4B	for-	1.DMm	.	voice	.	138.496	D:7
8c	-get	.	.	.	.	.	.
4.A	you	.	.	.	.	.	.
2.r	.	.	.	.	.	.	.
=49	=49	=49	=49	=49	=49	=49	=49
4r	.	2.GM	.	voice	.	141.403	G:maj
8D	But	.	.	.	.	.	.
4F#	now	.	.	.	.	.	.
8A	I	.	.	.	.	.	.
4c	know	2.DMm	.	voice	.	142.856	D:7
[8d	it's	.	.	.	.	.	.
8d]	_	.	.	.	.	.	.
8B	too	.	.	.	.	.	.
8A	late	.	.	.	.	.	.
=50	=50	=50	=50	=50	=50	=50	=50
4B	for	4.GM	.	voice	.	144.309	G:maj
[8G	me	.	.	.	A	.	.
4.G]	_	4.DMm	.	voice	.	145.036	D:7
r;	.	2.GM	.	voice	.	145.763	G:maj
r;	.	1r;	.	r	.	148.185	N.C.
r;	.	1r;	.	r	.	152.306	N.C.
*-	*-	*-	*-	*-	*-	*-	*-
!!!BillboardChartDate: 1958/10/27, 1958/09/15
!!!BillboardPeak: 4, 4
!!!BillboardWeeksOnChart: 18, 18
!!!COC: Jimmy Clanton
!!!ENC: Nathaniel Condit-Schultz
!!!EST: Awating manual error checking and editing.
!!!OTL: Just A Dream
!!!RDF**chordsym: original McGill chord annotation + (implied pitch class set, with bass pitch in first position)
!!!RDF**harmony: **recip + pitch class of root + harmonic quality
!!!RDF**leadinstrument: original McGill primary instrumentation annotation
!!!RDF**phrase: newline = linebreak in original McGill transcription
!!!RDF**timestamp: McGill audio timestamp in seconds
!!!RDT: 2017/01/12/
!!!SampleActualRank: 29,  5
!!!SampleID#: 185, 805
!!!SampleTargetRank: 31,  6
